X: 94
T:Lord Cathcart,(Haydn). JC.094
M:6/8
L:1/8
Q:100
S:John Clare,Poet,Helpston. (1793-1864)
R:Jig
O:England
A:Northamptonshire
N:
Z:vmp.P. Headford
K:Bb
F|FBdf2f|fedc2e|dBf ecg|(B3A2)F|!
FBdf2f|fedc2d|edB dcA|(c3B2)|!
|f|fgab2b|bagf2^f|ged ceg|(B3A2)B|!
cd=e fga|d3b2a|agf =efg|fg=e fga|!
bfd Bdf|fedc2e|(dB).f (ec).g|(B3A2)F|!
Bdff2f|fed{d}c2e|edB dcA|(c3B2)|]
W:MS includes Dance Instructions.|
